X:1
T:Missa Surge Propera (2: Christe Eleison)
T:Lupus Hellinck
T:Leiden Choirbooks - Codex F - folio 6
%%score 1 2 3 4
L:1/8
Q:1/4=96
M:4/4
K:C
V:1 treble nm="Superius" snm="S."
V:2 treble nm="Contra" snm="C."
V:3 treble-8 nm="Tenor" snm="T."
V:4 bass nm="Bassus" snm="B."
V:1
"^Andante" z4 A4 | e6 dc | d2 e2 c2 d2- | d2 e2 f3 e/d/ | c3 d e2 f2- | f2 e4 d2 | e2 c4 BA | %7
w: Chris-|te _ _|_ _ _ _|||||
 B2 A4 GF | E2 A4 G2 | A4 c4- | c2 B2 A2 G2 | A8 | z8 | z2 A2 B2 d2- | d2 c2 B2 AB | cdec d3 c | %16
w: |||* e- ley- son|_|||||
 A2 c2 B4 | A3 B c2 B2- | BG A2 G2 B2 | A4 z4 | z2 A2 B2 d2 | c2 A2 B2 c2- | c2 BA G2 c2 | %23
w: * Chris- te|_ _ _ _||||||
 B2 G2 A4- | A8 | z2 A2 d3 c | B2 A2 BA d2- | d2 c2 d4 | z6 A2 | d2 c2 d2 e2 | A2 e4 e2 | d4 c4 | %32
w: e- lei- son|_||||||||
 z2 A2 d2 c2 | d2 e2 f2 ed | c2 A2 BA d2- | d2 c2 d4- | d8- | d8- | d8 |] %39
w: ||* e- ley * son|_ _ _||||
V:2
 D4 A4- | A2 GF G2 A2 | F2 G2 A2 F2 | G3 F D4 | A6 GF | G2 A2 F4 | E4 z4 | z8 | z8 | z2 F2 E2 A2- | %10
w: Chris- te|_ _ _ _ _||||||||Chri- ste _|
 A2 G2 F2 D2 | E4 D4 | z2 D2 E2 G2- | G2 F2 E2 DE | FGAF G2 F2 | E4 D2 F2- | FE A4 ^G2 | %17
w: _ _ _ _||||||* * e- ley-|
 A2 D2 E2 G2- | G2 F2 E2 D2- | DC D2 G,2 B,2 | A,4 z2 D2 | E3 F G4 | F4 ED E2- | ED D4 ^C2 | %24
w: son _ _ _|_ _ _ _||||Chris- te _ _|_ _ _ _|
 D2 A,2 D4 | z6 D2 | G2 F2 G2 A2 | D2 A4 A2 | G4 F2 DE | FG A3 D A2- | A2 G2 E2 A2- | A2 G2 A4- | %32
w: ||||||||
 A2 F2 G2 A2- | AD A4 G2 | A4 G2 A2 | _B2 AG F2 D2 | G2 F2 G2 A2 | _B4 A4- | A8 |] %39
w: ||* * e-|ley- son _ _ _|_ _ _ _|||
V:3
 z8 | z8 | z8 | z8 | z8 | z8 | A4 e4- | e2 dc d2 e2 | c2 d4 e2 | f3 e/d/ c2 AB | cd e4 d2- | %11
w: ||||||Chris- te|_ _ _ _ _||||
 d2 ^c2 d2 A2 | B2 d4 c2 | d4 G2 B2 | A4 G2 d2 | A2 c2 G2 d2- | d2 c2 d2 e2 | f3 e c2 e2 | d4 G4 | %19
w: |* e- ley-|son _ _|_ _ _|||||
 z2 A2 B2 d2- | d2 c2 B2 AB | cdec d2 e2- | e2 d2 e2 g2- | gf d2 e4 | d4 z2 A2 | d3 c BA B2 | %26
w: Chris- te _|_ _ _ _ _||||||
 G2 d3 c A2 | B2 c2 A2 d2- | d2 c2 d2 f2- | f2 e2 f2 e2 | f2 e2 c4 | d4 e4 | z2 z4 A2 | %33
w: |||||||
 d2 c2 d2 e2 | f4 d2 f2 | e4 d4- | d8- | d8- | d8 |] %39
w: |* e- ley-|son _|_|||
V:4
 z8 | z8 | z8 | z8 | z8 | z4 D,4 | A,6 G,F, | G,2 A,2 F,2 G,2 | A,2 F,2 G,3 F, | %9
w: |||||Chri-|ste _ _|_ _ _ _||
 D,E,F,G, A,2 F,2- | F,2 G,2 A,2 B,2 | A,4 z2 D,2 | G,3 F, E,4 | D,4 z4 | z8 | z8 | z8 | z8 | %18
w: ||* e-|ley- son _|_|||||
 z2 D,2 E,2 G,2- | G,2 F,2 E,2 D,E, | F,G,A,F, G,2 D,2 | A,4 G,2 C2 | A,2 B,2 C3 B, | G,2 B,2 A,4 | %24
w: Chri _ _|_ ste _ _ _|_ _ _ _ _ _|||e- ley- son|
 D,8- | D,4 z4 | z2 D,2 G,2 F,2 | G,2 A,2 D,2 E,2 | E,4 D,4 | z2 A,2 D2 C2 | D2 E2 A,2 C2 | %31
w: _|||||Chri- ste _|_ _ _ _|
 B,4 A,4 | D3 C B,2 A,2 | z8 | z2 D,2 G,2 F,2 | G,2 A,2 _B,4 | G,2 _B,3 A, F,2 | G,4 D,4- | D,8 |] %39
w: |||||* e- ley- son|_ _||

